!!!OTL: In hoc anni circulo
**kern
*staff1
=--
*clefG2
*k[b-]
*M3/1
0b-
1a
=-
0b-
1cc
=-
0dd
1cc
=-
0.dd
=-
0dd
1dd
=-
0cc
1cc
=-
0b-
1a
=-
0.a
!!linebreak:original
=-
0dd
1cc
=-
0b-
1ff
=-
0gg
1ff
=-
0.ee
=-
0dd
1cc
=-
0b-
1ee-
=-
1dd
0dd
=-
0.dd
=-
!!linebreak:original
0dd
1cc
=-
0ff
1ff
=-
0dd
1cc
=-
0.dd
=-
0dd
1ee
=-
0ff
1dd
=-
0cc
1dd
=-
0.dd
=-=
*-
!!title: @{OTL}, @{GTL}, ed. @{ENC}
!!!pag:
!!!GTL: Hymnbook C
!!!EFL: 
!!!YEM: Creative Commons CC/BY/NC/SA 4.0
!!!ENC: Marcin Konik
!!!END: 2015-0m-dd
!!!EED: Marcin Konik
!!!EEV: 
!!!ONB: Encoded in vim by Marcin Konik
!!!CharacterEncoding: utf-8
!!!RDF**kern: l=long note in original notation
!!!RDF**kern: i=editorial accidental
!!muse2ps: z14jc180F
!!!COM: Anonim
!!!CDT: [?]
!!!TXO: Polish
!!!ODT: 
!!!GTL: Hymnbook C
!!!ARL: Opactwo św. Wojciecha, Staniątki 
!!!voices:	1
